X: 2923
T: Barrack Street
R: reel
M: 4/4
K: Gmajor
|:dc|BE E2 G2 AD|D2 AD D2 Ac|BE E2 G3A|(3.B.c.d ef e2 dc|
BE E2 G2AD|D2 AD D2 Ac|BE E2 GFGA|(3.B.c.d ef e2:|
|:f|geBe geBe|faad faaf|geBe geBe|fedf e3f|
(3.g.f.e Be geBe|faad faaf|g3e f3d|edBd e2:|

